Sources/FrostedUI/Resources/Icons.xcassets/chevronLeftToLineInBox16.imageset/chevron-left-to-line-in-box-16.svg

<svg width="16" height="16" viewBox="0 0 16 16" fill="none" xmlns="http://www.w3.org/2000/svg" data-fui-icon="true">
  <path
    d="M10.25 0C13.4256 0 16 2.57436 16 5.75V10.25C16 13.4256 13.4256 16 10.25 16H5.75C2.57436 16 0 13.4256 0 10.25V5.75C0 2.57436 2.57436 0 5.75 0H10.25ZM5.75 1.5C3.40279 1.5 1.5 3.40279 1.5 5.75V10.25C1.5 12.5972 3.40279 14.5 5.75 14.5H10.25C12.5972 14.5 14.5 12.5972 14.5 10.25V5.75C14.5 3.40279 12.5972 1.5 10.25 1.5H5.75ZM5.75 4C6.16421 4 6.5 4.33579 6.5 4.75V11.25C6.49995 11.6642 6.16418 12 5.75 12C5.33582 12 5.00005 11.6642 5 11.25V4.75C5 4.33579 5.33579 4 5.75 4ZM10.6992 4.24121C10.9802 3.93704 11.4545 3.91832 11.7588 4.19922C12.063 4.4802 12.0817 4.95449 11.8008 5.25879L9.26953 8L11.8008 10.7412C12.0817 11.0455 12.063 11.5198 11.7588 11.8008C11.4545 12.0817 10.9802 12.0629 10.6992 11.7588L7.69922 8.50879C7.43402 8.22149 7.43402 7.77851 7.69922 7.49121L10.6992 4.24121Z"
    fill="currentColor"
  />
</svg>

<svg xmlns="http://www.w3.org/2000/svg" width="16" height="16" fill="none" data-fui-icon="true" viewBox="0 0 16 16"><path fill="currentColor" d="M10.25 0A5.75 5.75 0 0 1 16 5.75v4.5A5.75 5.75 0 0 1 10.25 16h-4.5A5.75 5.75 0 0 1 0 10.25v-4.5A5.75 5.75 0 0 1 5.75 0zm-4.5 1.5A4.25 4.25 0 0 0 1.5 5.75v4.5a4.25 4.25 0 0 0 4.25 4.25h4.5a4.25 4.25 0 0 0 4.25-4.25v-4.5a4.25 4.25 0 0 0-4.25-4.25zm0 2.5a.75.75 0 0 1 .75.75v6.5a.75.75 0 0 1-1.5 0v-6.5A.75.75 0 0 1 5.75 4m4.95.241a.75.75 0 0 1 1.1 1.018L9.27 8l2.53 2.741a.75.75 0 0 1-1.1 1.018l-3-3.25a.75.75 0 0 1 0-1.018z"/></svg>
